!!!COM: Fanny (Mendelssohn) Hensel
!!!CNT: Deutsch
!!!TXO: Deutsch
!!!OTL: "Morgensta2ndchen"
!!!LYR: von Eichendorff, Joseph Freiherr
!!!OPR: 
!!!OPS: Op. 1
!!!ONM: No. 5
!!!ENC: Emily Thomas
!!!YOR: Hensel: Ausgewa2hlte Lieder fu2r Singstimme und Klavier
!!!YOR: Breitkopf & Hartel, 1994
!!!ODT: 1840/
!!NB: Vocal melody and text encoded.
**kern	**silbe
=1-	=1
*clefG2	*
*k[f#c#g#d#]	*
*M4/4	*
*MM[Allegro molto quasi presto]	*
4r	.
{8.g#	{In
16a	den
8b	Wip-
8cc#	-feln
8dd#	fri-
8ee	-sche
=2	=2
8gg#	Lu2f-
8ff#	-te,
8ee	fern
8dd#	me-
8cc#	-lod'-
8b	-scher
8cc#	Quel-
8a	-len
=3	=3
4g#}	Fall,}
4r	.
2r	.
=4	=4
4r	.
{8.g#	{durch
16a	die
8b	Ein-
8cc#	-sam-
8dd#	-keit
8ee	der
=5	=5
8gg#	Klu2f-
8ee	-te
8dd#	Wal-
8cc#	-des-
8dd#	-laut
8g#	und
16bq	Vo-
8a	|
8g#	-gel-
=6	=6
4gg#}	-schall,}
4r	.
4r	.
{8dd#	{Wal-
8dd#	-des-
=7	=7
4.ee	-laut
8ee	und
4.gg#	Vo-
16ff#	-gel-
16ee	|
=8	=8
4dd#}	-schall,}
{8ff#	{durch
8dd#	die
8ff#	Ein-
8ee	-sam-
8dd#	-keit
8cc#	der
=9	=9
8b	Klu2f-
8f#	-te
8e#	Wal-
8f#	-des-
8g#	-laut
8f#	und
8dd#	Vo-
8cc#	-gel-
=10	=10
4b}	-schall.}
4r	.
2r	.
=11	=11
4r	.
{8.f#	{Scheu-
16g#	-er
8a#	Tra2u-
8b	-me
8cc#	Spiel-
8dd#	-ge-
=12	=12
8ee	-nos-
8cc#	-sen
8b	stei-
8a#	-gen
8g#	all
8f#	beim
8g#	Mor-
8e	-gen-
=13	=13
4d#}	schein}
4r	.
2r	.
=14	=14
4r	.
{8.f#	{auf
16g#	des
8a#	Wein-
8b	-laubs
8cc#	schwan-
8dd#	-ken
=15	=15
8ff#	Spros-
8dd#	-sen
8cc#	dir
8b#	zum
8dd#	Fen-
8g#	-ster
8a	aus
8g#	und
=16	=16
4ee}	ein,}
4r	.
2r	.
=17	=17
4r	.
{8.cc#	{und
16b	wir
8a	nahn
8g#	noch
8f#	halb
8e	in
=18	=18
8d#	Tra2u-
8f#	-men,
8b	und
8a#	wir
8an	tun
8cc#	in
8ff#	Kla2n-
8ee	-gen
=19	=19
8dd#}	kund,}
8r	.
{8.ccn	{was
16b	da
8a	drau-
8gn	-ssen
8fn	in
8e	den
=20	=20
8d#	Ba2u-
8f#	-men
8b	singt
8a#	der
4an	wei-
4ccn	-te
=21	=21
4.ff#	Fru2h-
8ee	-lings-
4dd#}	-grund.}
4r	.
=22	=22
1r	.
=23	=23
4r	.
{8.g#	{Regt
16a	der
8b	Tag
8cc#	erst
8dd#	laut
8ee	die
=24	=24
8gg#	Schwin-
8ff#	-gen,
8ee	sind
8dd#	wir
8cc#	al-
8b	-le
8cc#	wie-
8a	-der
=25	=25
4g#}	weit,}
4r	.
2r	.
=26	=26
4r	.
{8.g#	{a-
16a	-ber
8b	tief
8cc#	im
8dd#	Her-
8ee	-zen
=27	=27
8gg#	klin-
8ee	-gen
8dd#	lan-
8cc#	-ge
8dd#	nach
8g#	noch
16bq	Lust
8a	|
8g#	und
=28	=28
4gg#}	Leid,}
4r	.
4r	.
{8dd#	{lan-
8dd#	-ge
=29	=29
4.ee	nach
8ee	noch
4.gg#	Lust
16ff#	und
16ee	|
=30	=30
4dd#}	Leid,}
{8ff#	{regt
8dd#	der
8ff#	Tag
8ee	erst
8dd#	laut
8cc#	die
=31	=31
8b	Schwin-
8f#	-gen,
8e#	sind
8f#	wir
8g#	wie-
8f#	-der
8dd#	al-
8cc#	-le
=32	=32
4b}	weit;}
4r	.
{8a	{a-
8g#	|
8f#	-ber
8e	|
=33	=33
4e	tief
4d#	im
8cc#	Her-
8b	|
8a	-zen
8g#	|
=34	=34
4g#	klin-
4f#	-gen
8ff#	lan
8ee	|
8dd#	-ge
8cc#	|
=35	=35
8b	nach
8dd#	|
8ff#	noch
8gg#	|
4.aa	Lust
8dd#	und
=35	=35
4ee}	Leid.}
4r	.
2r	.
==	==
*-	*-

